X: 1438
T: the Bonnie Boy
R: reel
O: J.O'Neill
B: O'Neill's 1850 #1438
Z: Bob Safranek, rjs@gsp.org
M: C|
L: 1/8
K: A
(ed) |: cBAa ((3fga) ec | dfec B2(Bd) |\
[1 cBAa ((3fga) ec | dgec A2(Ad) :|\
[2 cefg agbg | afed cAAd |] ((3cBA) (ec) fAeA |
| ((3cBA) (ec) B2(Bd) | ((3cBA) (eA) fAeA | dfed cAAd \
||((3cBA) (ec) fAeA | dfec B2(Bd) | cefg agbg | afec A2 |]
